X:107
T:Cryin' Holy
C:
N:Transcribed by Rod B.
R:bluegrass
L:1/8
Q:1/4=230
M:4/4
K:A
z6 cB | "A"A=c ^c=c e^c BA | BA EF E2 =c^c | e2 fe ae fa | A=c ^c2 ef2e | "D"f2 f2 ef ec | 
=ce ^cB AF EC | "A"ED EF ED CD | C2 A2 AB c2 | e4 de3 | c2 AE FA B=c | c2 e2 de3 | 
c2 AE FA B=c | c2 C2 D2 ^D2 | "E"E2 ea ed =c^c | "A"A4 (3E^D=D (3B,=C^C | A8 | 


